X: 51
T:Trip To Cottingham
T:Garcon Volange
T:Sally Sloane's
M:6/8
L:1/8
C:aka Sally Sloane's
S:Leadley MSs
Z:C.G.P
K:D
|:A|FAd FAd|GBd GBd|FAd dcd|f2e e2A|!FAd FAd|GBd GBd|FAd dcd|e2c
d2:||! :e|f3 def|f2ee2f|g2e cde|efe d2e|!f3 def|f2e e2f|g2e cde|efe
d2:||! :z|A3 F2G|A3 F2G|AFA dAd|fed cBA|!G3 E2F|G3 E2F|GBA
GFE|1F3G2||2D3D2:||
